@extra/phlat-icons/symbolic/package-x-generic.svg

<svg xmlns="http://www.w3.org/2000/svg" version="1.1" viewBox="0 0 16 16"><path d="m3 1c-1.108 0-2 0.892-2 2v10c0 1.108 0.892 2 2 2h10c1.108 0 2-0.892 2-2v-10c0-1.108-0.892-2-2-2h-3v1h-1v1h1v1h-1v1h1v1h-1v1h1v1c0.554 0 1 0.446 1 1s-0.446 1-1 1v2.5c0 0.831-0.669 1.5-1.5 1.5h-1c-0.831 0-1.5-0.669-1.5-1.5v-2.5c-0.554 0-1-0.446-1-1s0.446-1 1-1h1v-1h-1v-1h1v-1h-1v-1h1v-1h-1v-1h1v-1h-4zm5 10c-0.554 0-1 0.446-1 1s0.446 1 1 1 1-0.446 1-1-0.446-1-1-1z" fill="#f1f2f2"/></svg>

<svg xmlns="http://www.w3.org/2000/svg" viewBox="0 0 16 16">
    <path d="M3 1c-1.108 0-2 .892-2 2v10c0 1.108.892 2 2 2h10c1.108 0 2-.892 2-2V3c0-1.108-.892-2-2-2h-3v1H9v1h1v1H9v1h1v1H9v1h1v1c.554 0 1 .446 1 1s-.446 1-1 1v2.5c0 .831-.669 1.5-1.5 1.5h-1c-.831 0-1.5-.669-1.5-1.5V10c-.554 0-1-.446-1-1s.446-1 1-1h1V7H6V6h1V5H6V4h1V3H6V2h1V1H3zm5 10c-.554 0-1 .446-1 1s.446 1 1 1 1-.446 1-1-.446-1-1-1z" fill="#f1f2f2"/>
</svg>
